X: 13188
T: First Slip, The
R: slip jig
M: 9/8
K: Amajor
|:ecA A2A A3|ecA A2A a2f|ecA A2A A2c|B2B B2c d2B:|
|:c2e e2e e3|c2e e2e a2f|c2e e2e e3|B2B B2c d2B:|

